;FLAVOR:Marlin
;TIME:21943
;Filament used: 8.63965m
;Layer height: 0.1
;MINX:22.113
;MINY:20.814
;MINZ:0.3
;MAXX:202.649
;MAXY:201.35
;MAXZ:18.2
;Generated with Cura_SteamEngine 4.12.1
M140 S60
M105
M190 S60
M104 S210
M105
M109 S210
M82 ;absolute extrusion mode
; Ender 3 Custom Start G-code
G92 E0 ; Reset Extruder
G28 ; Home all axes
G1 Z2.0 F3000 ; Move Z Axis up little to prevent scratching of Heat Bed
G1 X0.1 Y20 Z0.3 F5000.0 ; Move to start position
G1 X0.1 Y200.0 Z0.3 F1500.0 E15 ; Draw the first line
G1 X0.4 Y200.0 Z0.3 F5000.0 ; Move to side a little
G1 X0.4 Y20 Z0.3 F1500.0 E30 ; Draw the second line
G92 E0 ; Reset Extruder
G1 Z2.0 F3000 ; Move Z Axis up little to prevent scratching of Heat Bed
G1 X5 Y20 Z0.3 F5000.0 ; Move over to prevent blob squish
G92 E0
G92 E0
G1 F2400 E-3
;LAYER_COUNT:180
;LAYER:0
M107
;MESH:Body1.3mf
G0 F6000 X175.195 Y199.578 Z0.3
;TYPE:WALL-INNER
G1 F2400 E0
G1 F1200 X23.885 Y48.268 E10.67574
G1 X49.567 Y22.586 E12.48774
G1 X200.877 Y173.896 E23.16348
G1 X175.195 Y199.578 E24.97548
G0 F6000 X175.195 Y200.144
;TYPE:WALL-OUTER
G1 F1200 X23.319 Y48.268 E35.69116
G1 X49.567 Y22.02 E37.54309
G1 X201.443 Y173.896 E48.25877
G1 X175.195 Y200.144 E50.1107
G0 F6000 X175.195 Y199.028
;TYPE:SKIN
G1 F1200 X24.435 Y48.268 E60.74764
G1 X49.567 Y23.136 E62.52083
G1 X200.327 Y173.896 E73.15777
G1 X175.195 Y199.028 E74.93096
G0 F6000 X175.402 Y198.595
G1 F1200 X24.866 Y48.059 E85.55209
G0 F6000 X25.149 Y47.777
G1 F1200 X175.684 Y198.312 E96.17315
G0 F6000 X175.967 Y198.029
G1 F1200 X25.432 Y47.494 E106.79421
G0 F6000 X25.715 Y47.211
G1 F1200 X176.25 Y197.746 E117.41526
G0 F6000 X176.533 Y197.463
G1 F1200 X25.998 Y46.928 E128.03632
G0 F6000 X26.281 Y46.645
G1 F1200 X176.816 Y197.18 E138.65738
G0 F6000 X177.099 Y196.898
G1 F1200 X26.563 Y46.362 E149.27851
G0 F6000 X26.846 Y46.08
G1 F1200 X177.381 Y196.615 E159.89956
G0 F6000 X177.664 Y196.332
G1 F1200 X27.129 Y45.797 E170.52062
G0 F6000 X27.412 Y45.514
G1 F1200 X177.947 Y196.049 E181.14168
G0 F6000 X178.23 Y195.766
G1 F1200 X27.695 Y45.231 E191.76274
G0 F6000 X27.978 Y44.948
G1 F1200 X178.513 Y195.483 E202.38379
G0 F6000 X178.796 Y195.201
G1 F1200 X28.26 Y44.665 E213.00492
G0 F6000 X28.543 Y44.382
G1 F1200 X179.079 Y194.918 E223.62605
G0 F6000 X179.361 Y194.635
G1 F1200 X28.826 Y44.1 E234.24711
G0 F6000 X29.109 Y43.817
G1 F1200 X179.644 Y194.352 E244.86816
G0 F6000 X179.927 Y194.069
G1 F1200 X29.392 Y43.534 E255.48922
G0 F6000 X29.675 Y43.251
G1 F1200 X180.21 Y193.786 E266.11028
G0 F6000 X180.493 Y193.504
G1 F1200 X29.957 Y42.968 E276.73141
G0 F6000 X30.24 Y42.685
G1 F1200 X180.776 Y193.221 E287.35253
G0 F6000 X181.058 Y192.938
G1 F1200 X30.523 Y42.403 E297.97359
G0 F6000 X30.806 Y42.12
G1 F1200 X181.341 Y192.655 E308.59465
G0 F6000 X181.624 Y192.372
G1 F1200 X31.089 Y41.837 E319.21571
G0 F6000 X31.372 Y41.554
G1 F1200 X181.907 Y192.089 E329.83676
G0 F6000 X182.19 Y191.806
G1 F1200 X31.655 Y41.271 E340.45782
G0 F6000 X31.937 Y40.988
G1 F1200 X182.473 Y191.524 E351.07895
G0 F6000 X182.755 Y191.241
G1 F1200 X32.22 Y40.706 E361.70001
G0 F6000 X32.503 Y40.423
G1 F1200 X183.038 Y190.958 E372.32106
G0 F6000 X183.321 Y190.675
G1 F1200 X32.786 Y40.14 E382.94212
G0 F6000 X33.069 Y39.857
G1 F1200 X183.604 Y190.392 E393.56318
G0 F6000 X183.887 Y190.109
G1 F1200 X33.352 Y39.574 E404.18424
G0 F6000 X33.634 Y39.291
G1 F1200 X184.17 Y189.827 E414.80536
G0 F6000 X184.453 Y189.544
G1 F1200 X33.917 Y39.008 E425.42649
G0 F6000 X34.2 Y38.726
G1 F1200 X184.735 Y189.261 E436.04755
G0 F6000 X185.018 Y188.978
G1 F1200 X34.483 Y38.443 E446.66861
G0 F6000 X34.766 Y38.16
G1 F1200 X185.301 Y188.695 E457.28966
G0 F6000 X185.584 Y188.412
G1 F1200 X35.049 Y37.877 E467.91072
G0 F6000 X35.332 Y37.594
G1 F1200 X185.867 Y188.13 E478.53181
G0 F6000 X186.15 Y187.847
G1 F1200 X35.614 Y37.311 E489.15294
G0 F6000 X35.897 Y37.029
G1 F1200 X186.432 Y187.564 E499.774
G0 F6000 X186.715 Y187.281
G1 F1200 X36.18 Y36.746 E510.39506
G0 F6000 X36.463 Y36.463
G1 F1200 X186.998 Y186.998 E521.01611
G0 F6000 X187.281 Y186.715
G1 F1200 X36.746 Y36.18 E531.63717
G0 F6000 X37.029 Y35.897
G1 F1200 X187.564 Y186.432 E542.25823
G0 F6000 X187.847 Y186.15
G1 F1200 X37.311 Y35.614 E552.87935
G0 F6000 X37.594 Y35.332
G1 F1200 X188.13 Y185.867 E563.50045
G0 F6000 X188.412 Y185.584
G1 F1200 X37.877 Y35.049 E574.1215
G0 F6000 X38.16 Y34.766
G1 F1200 X188.695 Y185.301 E584.74256
G0 F6000 X188.978 Y185.018
G1 F1200 X38.443 Y34.483 E595.36362
G0 F6000 X38.726 Y34.2
G1 F1200 X189.261 Y184.735 E605.98468
G0 F6000 X189.544 Y184.453
G1 F1200 X39.008 Y33.917 E616.6058
G0 F6000 X39.291 Y33.634
G1 F1200 X189.827 Y184.17 E627.22693
G0 F6000 X190.109 Y183.887
G1 F1200 X39.574 Y33.352 E637.84799
G0 F6000 X39.857 Y33.069
G1 F1200 X190.392 Y183.604 E648.46905
G0 F6000 X190.675 Y183.321
G1 F1200 X40.14 Y32.786 E659.0901
G0 F6000 X40.423 Y32.503
G1 F1200 X190.958 Y183.038 E669.71116
G0 F6000 X191.241 Y182.755
G1 F1200 X40.706 Y32.22 E680.33222
G0 F6000 X40.988 Y31.937
G1 F1200 X191.524 Y182.473 E690.95335
G0 F6000 X191.806 Y182.19
G1 F1200 X41.271 Y31.655 E701.5744
G0 F6000 X41.554 Y31.372
G1 F1200 X192.089 Y181.907 E712.19546
G0 F6000 X192.372 Y181.624
G1 F1200 X41.837 Y31.089 E722.81652
G0 F6000 X42.12 Y30.806
G1 F1200 X192.655 Y181.341 E733.43758
G0 F6000 X192.938 Y181.058
G1 F1200 X42.403 Y30.523 E744.05863
G0 F6000 X42.685 Y30.24
G1 F1200 X193.221 Y180.776 E754.67976
G0 F6000 X193.504 Y180.493
G1 F1200 X42.968 Y29.957 E765.30089
G0 F6000 X43.251 Y29.675
G1 F1200 X193.786 Y180.21 E775.92195
G0 F6000 X194.069 Y179.927
G1 F1200 X43.534 Y29.392 E786.543
G0 F6000 X43.817 Y29.109
G1 F1200 X194.352 Y179.644 E797.16406
G0 F6000 X194.635 Y179.361
G1 F1200 X44.1 Y28.826 E807.78512
G0 F6000 X44.382 Y28.543
G1 F1200 X194.918 Y179.079 E818.40625
G0 F6000 X195.201 Y178.796
G1 F1200 X44.665 Y28.26 E829.02737
G0 F6000 X44.948 Y27.978
G1 F1200 X195.483 Y178.513 E839.64843
G0 F6000 X195.766 Y178.23
G1 F1200 X45.231 Y27.695 E850.26949
G0 F6000 X45.514 Y27.412
G1 F1200 X196.049 Y177.947 E860.89055
G0 F6000 X196.332 Y177.664
G1 F1200 X45.797 Y27.129 E871.5116
G0 F6000 X46.08 Y26.846
G1 F1200 X196.615 Y177.381 E882.13266
G0 F6000 X196.898 Y177.099
G1 F1200 X46.362 Y26.563 E892.75379
G0 F6000 X46.645 Y26.281
G1 F1200 X197.18 Y176.816 E903.37485
G0 F6000 X197.463 Y176.533
G1 F1200 X46.928 Y25.998 E913.9959
G0 F6000 X47.211 Y25.715
G1 F1200 X197.746 Y176.25 E924.61696
G0 F6000 X198.029 Y175.967
G1 F1200 X47.494 Y25.432 E935.23802
G0 F6000 X47.777 Y25.149
G1 F1200 X198.312 Y175.684 E945.85907
G0 F6000 X198.595 Y175.402
G1 F1200 X48.059 Y24.866 E956.4802
G0 F6000 X48.342 Y24.583
G1 F1200 X198.878 Y175.119 E967.10133
G0 F6000 X199.16 Y174.836
G1 F1200 X48.625 Y24.301 E977.72239
G0 F6000 X48.908 Y24.018
G1 F1200 X199.443 Y174.553 E988.34345
G0 F6000 X199.726 Y174.27
G1 F1200 X49.191 Y23.735 E998.9645
G0 F6000 X49.474 Y23.452
G1 F1200 X200.009 Y173.987 E1009.58556
G1 F2400 E1006.58556
;MESH:NONMESH
G0 F300 X200.009 Y173.987 Z0.4
G0 F6000 X201.292 Y175.269
G0 X176.089 Y200.472
G0 X175.195 Y199.578
;TIME_ELAPSED:1023.522653
;LAYER:1
M106 S85
;TYPE:WALL-INNER
;MESH:Body1.3mf
G1 F2400 E1009.58556
G1 F1350 X23.885 Y48.268 E1013.14414
G1 X49.567 Y22.586 E1013.74814
G1 X200.877 Y173.896 E1017.30672
G1 X175.195 Y199.578 E1017.91072
G0 F7800 X175.195 Y200.144
;TYPE:WALL-OUTER
G1 F1350 X23.319 Y48.268 E1021.48261
G1 X49.567 Y22.02 E1022.09992
G1 X201.443 Y173.896 E1025.67182
G1 X175.195 Y200.144 E1026.28913
G0 F7800 X175.195 Y199.028
;TYPE:SKIN
G1 F1350 X24.435 Y48.268 E1029.83477
G1 X49.567 Y23.136 E1030.42584
G1 X200.327 Y173.896 E1033.97148
G1 X175.195 Y199.028 E1034.56255
G1 F2400 E1031.56255
G0 F7800 X176.364 Y200.197
G0 X201.383 Y175.178
G0 X200.061 Y173.856
G1 F2400 E1034.56255
G1 F1350 X175.155 Y198.762 E1035.1483
G0 F7800 X174.872 Y198.479
G1 F1350 X199.778 Y173.573 E1035.73405
G0 F7800 X199.496 Y173.29
G1 F1350 X174.589 Y198.197 E1036.31982
G0 F7800 X174.306 Y197.914
G1 F1350 X199.213 Y173.007 E1036.9056
G0 F7800 X198.93 Y172.724
G1 F1350 X174.023 Y197.631 E1037.49137
G0 F7800 X173.741 Y197.348
G1 F1350 X198.647 Y172.442 E1038.07712
G0 F7800 X198.364 Y172.159
G1 F1350 X173.458 Y197.065 E1038.66288
G0 F7800 X173.175 Y196.782
G1 F1350 X198.081 Y171.876 E1039.24863
G0 F7800 X197.798 Y171.593
G1 F1350 X172.892 Y196.5 E1039.83439
G0 F7800 X172.609 Y196.217
G1 F1350 X197.516 Y171.31 E1040.42016
G0 F7800 X197.233 Y171.027
G1 F1350 X172.326 Y195.934 E1041.00594
G0 F7800 X172.044 Y195.651
G1 F1350 X196.95 Y170.745 E1041.59169
G0 F7800 X196.667 Y170.462
G1 F1350 X171.761 Y195.368 E1042.17744
G0 F7800 X171.478 Y195.085
G1 F1350 X196.384 Y170.179 E1042.76319
G0 F7800 X196.101 Y169.896
G1 F1350 X171.195 Y194.802 E1043.34894
G0 F7800 X170.912 Y194.52
G1 F1350 X195.819 Y169.613 E1043.93472
G0 F7800 X195.536 Y169.33
G1 F1350 X170.629 Y194.237 E1044.52049
G0 F7800 X170.346 Y193.954
G1 F1350 X195.253 Y169.048 E1045.10625
G0 F7800 X194.97 Y168.765
G1 F1350 X170.064 Y193.671 E1045.692
G0 F7800 X169.781 Y193.388
G1 F1350 X194.687 Y168.482 E1046.27776
G0 F7800 X194.404 Y168.199
G1 F1350 X169.498 Y193.105 E1046.86351
G0 F7800 X169.215 Y192.823
G1 F1350 X194.122 Y167.916 E1047.44928
G0 F7800 X193.839 Y167.633
G1 F1350 X168.932 Y192.54 E1048.03506
G0 F7800 X168.649 Y192.257
G1 F1350 X193.556 Y167.35 E1048.62083
G0 F7800 X193.273 Y167.068
G1 F1350 X168.367 Y191.974 E1049.20658
G0 F7800 X168.084 Y191.691
G1 F1350 X192.99 Y166.785 E1049.79233
G0 F7800 X192.707 Y166.502
G1 F1350 X167.801 Y191.408 E1050.37808
G0 F7800 X167.518 Y191.126
G1 F1350 X192.424 Y166.219 E1050.96384
G0 F7800 X192.142 Y165.936
G1 F1350 X167.235 Y190.843 E1051.54962
G0 F7800 X166.952 Y190.56
G1 F1350 X191.859 Y165.653 E1052.13539
G0 F7800 X191.576 Y165.371
G1 F1350 X166.67 Y190.277 E1052.72114
G0 F7800 X166.387 Y189.994
G1 F1350 X191.293 Y165.088 E1053.3069
G0 F7800 X191.01 Y164.805
G1 F1350 X166.104 Y189.711 E1053.89265
G0 F7800 X165.821 Y189.428
G1 F1350 X190.727 Y164.522 E1054.4784
G0 F7800 X190.445 Y164.239
G1 F1350 X165.538 Y189.146 E1055.06417
G0 F7800 X165.255 Y188.863
G1 F1350 X190.162 Y163.956 E1055.64995
G0 F7800 X189.879 Y163.674
G1 F1350 X164.972 Y188.58 E1056.23571
G0 F7800 X164.69 Y188.297
G1 F1350 X189.596 Y163.391 E1056.82146
G0 F7800 X189.313 Y163.108
G1 F1350 X164.407 Y188.014 E1057.40721
G0 F7800 X164.124 Y187.731
G1 F1350 X189.03 Y162.825 E1057.99296
G0 F7800 X188.748 Y162.542
G1 F1350 X163.841 Y187.449 E1058.57874
G0 F7800 X163.558 Y187.166
G1 F1350 X188.465 Y162.259 E1059.16451
G0 F7800 X188.182 Y161.976
G1 F1350 X163.275 Y186.883 E1059.75029
G0 F7800 X162.993 Y186.6
G1 F1350 X187.899 Y161.694 E1060.33604
G0 F7800 X187.616 Y161.411
G1 F1350 X162.71 Y186.317 E1060.92179
G0 F7800 X162.427 Y186.034
G1 F1350 X187.333 Y161.128 E1061.50754
G0 F7800 X187.05 Y160.845
G1 F1350 X162.144 Y185.752 E1062.0933
G0 F7800 X161.861 Y185.469
G1 F1350 X186.768 Y160.562 E1062.67908
G0 F7800 X186.485 Y160.279
G1 F1350 X161.578 Y185.186 E1063.26485
G0 F7800 X161.296 Y184.903
G1 F1350 X186.202 Y159.997 E1063.8506
G0 F7800 X185.919 Y159.714
G1 F1350 X161.013 Y184.62 E1064.43635
G0 F7800 X160.73 Y184.337
G1 F1350 X185.636 Y159.431 E1065.0221
G0 F7800 X185.353 Y159.148
G1 F1350 X160.447 Y184.054 E1065.60785
G0 F7800 X160.164 Y183.772
G1 F1350 X185.071 Y158.865 E1066.19363
G0 F7800 X184.788 Y158.582
G1 F1350 X159.881 Y183.489 E1066.7794
G0 F7800 X159.598 Y183.206
G1 F1350 X184.505 Y158.299 E1067.36518
G0 F7800 X184.222 Y158.017
G1 F1350 X159.316 Y182.923 E1067.95093
G0 F7800 X159.033 Y182.64
G1 F1350 X183.939 Y157.734 E1068.53668
G0 F7800 X183.656 Y157.451
G1 F1350 X158.75 Y182.357 E1069.12243
G0 F7800 X158.467 Y182.075
G1 F1350 X183.374 Y157.168 E1069.7082
G0 F7800 X183.091 Y156.885
G1 F1350 X158.184 Y181.792 E1070.29398
G0 F7800 X157.901 Y181.509
G1 F1350 X182.808 Y156.602 E1070.87975
G0 F7800 X182.525 Y156.32
G1 F1350 X157.619 Y181.226 E1071.4655
G0 F7800 X157.336 Y180.943
G1 F1350 X182.242 Y156.037 E1072.05126
G0 F7800 X181.959 Y155.754
G1 F1350 X157.053 Y180.66 E1072.63701
G0 F7800 X156.77 Y180.377
G1 F1350 X181.676 Y155.471 E1073.22276
G0 F7800 X181.394 Y155.188
G1 F1350 X156.487 Y180.095 E1073.80853
G0 F7800 X156.204 Y179.812
G1 F1350 X181.111 Y154.905 E1074.39431
G0 F7800 X180.828 Y154.623
G1 F1350 X155.921 Y179.529 E1074.98007
G0 F7800 X155.639 Y179.246
G1 F1350 X180.545 Y154.34 E1075.56582
G0 F7800 X180.262 Y154.057
G1 F1350 X155.356 Y178.963 E1076.15157
G0 F7800 X155.073 Y178.68
G1 F1350 X179.979 Y153.774 E1076.73732
G0 F7800 X179.697 Y153.491
G1 F1350 X154.79 Y178.398 E1077.3231
G0 F7800 X154.507 Y178.115
G1 F1350 X179.414 Y153.208 E1077.90887
G0 F7800 X179.131 Y152.925
G1 F1350 X154.224 Y177.832 E1078.49464
G0 F7800 X153.942 Y177.549
G1 F1350 X178.848 Y152.643 E1079.0804
G0 F7800 X178.565 Y152.36
G1 F1350 X153.659 Y177.266 E1079.66615
G0 F7800 X153.376 Y176.983
G1 F1350 X178.282 Y152.077 E1080.2519
G0 F7800 X177.999 Y151.794
G1 F1350 X153.093 Y176.701 E1080.83766
G0 F7800 X152.81 Y176.418
G1 F1350 X177.717 Y151.511 E1081.42343
G0 F7800 X177.434 Y151.228
G1 F1350 X152.527 Y176.135 E1082.00921
G0 F7800 X152.245 Y175.852
G1 F1350 X177.151 Y150.946 E1082.59496
G0 F7800 X176.868 Y150.663
G1 F1350 X151.962 Y175.569 E1083.18071
G0 F7800 X151.679 Y175.286
G1 F1350 X176.585 Y150.38 E1083.76646
G0 F7800 X176.302 Y150.097
G1 F1350 X151.396 Y175.003 E1084.35221
G0 F7800 X151.113 Y174.721
G1 F1350 X176.02 Y149.814 E1084.93799
G0 F7800 X175.737 Y149.531
G1 F1350 X150.83 Y174.438 E1085.52376
G0 F7800 X150.547 Y174.155
G1 F1350 X175.454 Y149.249 E1086.10952
G0 F7800 X175.171 Y148.966
G1 F1350 X150.265 Y173.872 E1086.69528
G0 F7800 X149.982 Y173.589
G1 F1350 X174.888 Y148.683 E1087.28103
G0 F7800 X174.605 Y148.4
G1 F1350 X149.699 Y173.306 E1087.86678
G0 F7800 X149.416 Y173.024
G1 F1350 X174.323 Y148.117 E1088.45255
G0 F7800 X174.04 Y147.834
G1 F1350 X149.133 Y172.741 E1089.03833
G0 F7800 X148.85 Y172.458
G1 F1350 X173.757 Y147.551 E1089.6241
G0 F7800 X173.474 Y147.269
G1 F1350 X148.568 Y172.175 E1090.20985
G0 F7800 X148.285 Y171.892
G1 F1350 X173.191 Y146.986 E1090.7956
G0 F7800 X172.908 Y146.703
G1 F1350 X148.002 Y171.609 E1091.38135
G0 F7800 X147.719 Y171.327
G1 F1350 X172.625 Y146.42 E1091.96712
G0 F7800 X172.343 Y146.137
G1 F1350 X147.436 Y171.044 E1092.55289
G0 F7800 X147.153 Y170.761
G1 F1350 X172.06 Y145.854 E1093.13867
G0 F7800 X171.777 Y145.572
G1 F1350 X146.871 Y170.478 E1093.72442
G0 F7800 X146.588 Y170.195
G1 F1350 X171.494 Y145.289 E1094.31017
G0 F7800 X171.211 Y145.006
G1 F1350 X146.305 Y169.912 E1094.89592
G0 F7800 X146.022 Y169.629
G1 F1350 X170.928 Y144.723 E1095.48167
G0 F7800 X170.646 Y144.44
G1 F1350 X145.739 Y169.347 E1096.06744
G0 F7800 X145.456 Y169.064
G1 F1350 X170.363 Y144.157 E1096.65322
G0 F7800 X170.08 Y143.875
G1 F1350 X145.173 Y168.781 E1097.23898
G0 F7800 X144.891 Y168.498
G1 F1350 X169.797 Y143.592 E1097.82473
G0 F7800 X169.514 Y143.309
G1 F1350 X144.608 Y168.215 E1098.41048
G0 F7800 X144.325 Y167.932
G1 F1350 X169.231 Y143.026 E1098.99623
G0 F7800 X168.949 Y142.743
G1 F1350 X144.042 Y167.65 E1099.58201
G0 F7800 X143.759 Y167.367
G1 F1350 X168.666 Y142.46 E1100.16778
G0 F7800 X168.383 Y142.177
G1 F1350 X143.476 Y167.084 E1100.75356
G0 F7800 X143.194 Y166.801
G1 F1350 X168.1 Y141.895 E1101.33931
G0 F7800 X167.817 Y141.612
G1 F1350 X142.911 Y166.518 E1101.92506
G0 F7800 X142.628 Y166.235
G1 F1350 X167.534 Y141.329 E1102.51081
G0 F7800 X167.251 Y141.046
G1 F1350 X142.345 Y165.953 E1103.09657
G0 F7800 X142.062 Y165.67
G1 F1350 X166.969 Y140.763 E1103.68235
G0 F7800 X166.686 Y140.48
G1 F1350 X141.779 Y165.387 E1104.26812
G0 F7800 X141.497 Y165.104
